app/dist/common/images/laboratory-amer.svg

<svg height="18" width="18" xmlns="http://www.w3.org/2000/svg"><path d="m0 0h18v18h-18z" fill="#007da4"/><path d="m6 7.587 1.443-1.109-1.443-1.26v2.37zm2.943 8.413h3.057v-2.348zm-1.025-6.739.57.478h2.79l-.57-.478zm-1.102-4.652h3.057l.703-.522h-3.076zm3.171 7.326-1.215.934h2.298zm-.911-1.675.93.783 1.007-.782h-1.937zm-3.076-1.717v5.587l3.437-2.652zm6-6.543h-1.804l-.683.522h2.487zm-5.032 3.13 1.064.914 1.196-.913h-2.26zm5.032 5.261-1.462 1.109 1.462 1.26zm-3.418-3.891 3.418 2.935v-5.565zm.456-4.5h-3.038v2.348zm-.93 11.391-.684.522h3.076l.684-.522h-3.077zm-1.348 1.044-.729.565h3.076l.727-.565zm.208-6.695h1.975l-.93-.805-1.045.804zm4.254-4.175.746-.565h-3.076l-.727.565zm-5.222 11.913v.522h1.823l.664-.522zm.76-7.217.57.478h2.77l-.57-.478z" fill="#fff"/></svg>

<!-- by TradingView --><svg width="18" height="18" xmlns="http://www.w3.org/2000/svg"><path fill="#007DA4" d="M0 0h18v18H0z"/><path d="M6 7.587l1.443-1.109L6 5.218v2.37zM8.943 16H12v-2.348L8.943 16zM7.918 9.261l.57.478h2.79l-.57-.478h-2.79zM6.816 4.609h3.057l.703-.522H7.5l-.684.522zM9.987 11.935l-1.215.934h2.298l-1.083-.934zM9.076 10.26l.93.783 1.007-.782H9.076zM6 8.543v5.587l3.437-2.652L6 8.543zM12 2h-1.804l-.683.522H12V2zM6.968 5.13l1.064.914 1.196-.913h-2.26zM12 10.391L10.538 11.5 12 12.76v-2.369zM8.582 6.5L12 9.435V3.87L8.582 6.5zM9.038 2H6v2.348L9.038 2zM8.108 13.391l-.684.522H10.5l.684-.522H8.107zM6.76 14.435L6.031 15h3.076l.727-.565H6.76zM6.968 7.74h1.975l-.93-.805-1.045.804zM11.222 3.565L11.968 3H8.892l-.727.565h3.057zM6 15.478V16h1.823l.664-.522H6zM6.76 8.261l.57.478H10.1l-.57-.478H6.76z" fill="#fff"/></svg>
